X:1
T:Maria sey gebenedeyt
T:André Vierendeels
T:Melody by Georg Vogler (1625) (Soprano voice)
T:Source ; Catechismus---Würzburg---J.Volmari---1652. Editor : André Vierendeels (09/10/17). 
T:Notes : Original clef : C1, other voices supplied editorially Original note values have been quartered Text  Middle German
T:Maria sey gebenedeyt
T:©
T:©
T:©
C:André Vierendeels
Z:©
%%score [ 1 2 3 ]
L:1/8
Q:1/4=90
M:3/4
K:C
V:1 treble nm="Soprano" snm="S"
V:2 treble nm="Alto" snm="A"
V:3 bass nm="Bass" snm="B"
V:1
 z2 z2 c2 |"^1)" c4 B2 | A4 G2 | c4 d2 | e4 c2 | d4 e2 |"^1)""^4)" d4 c2 | e2 d4 | c4 d2 | e4 d2 | %10
w: Ma-|ri- a|sey ge-|be- ne-|deyt un-|der den|Wei- bern|al- le|Zeit die-|weil frucht-|
w: Ge-|be- ne-|dey- et|sey dein|Leib, O|hoch- ge-|be- ne-|dey- tes|Weib, wel-|cher tra-|
 A4 c2- | c2 B2 A2 | G4 d2 | e4 d2 | A4 c2- | c2 B2 A2 | G4 G2 | c4 c2 | d4 e2 | f4 e2 | d4 e2 | %21
w: bar dein|_ Jung- fraw-|schafft in|wel- cher|hafft die|_ Mut- ter-|schafft die|Gött- lich|Krafft hat|dich ge-|macht, ein|
w: gen das|_ gött- lich|Wort, neun|Mo- nat|lang an|_ man- ches|Orth, wel-|cher ohn|Schmer- tzen|uns ge-|bahr den|
 f4 e2 | d4 c2 | e2 d4 | c6 |] %25
w: Mut- ter|Got- tes|hoch- ge-|acht.|
w: der uns|reist ausz|al- ler|Gfahr.|
V:2
 z2 z2 E2 |"^2)""^1)" G4 D2 | F4 D2 | G4 G2 | E4 G2 | B4 G2 | G4 E2 | G2 F4 | A4 G2 | G4 F2 | %10
w: Ma-|ri- a|sey ge-|be- ne-|deyt, un-|der den|Wei- bern|al- le|Zeit die-|weil frucht-|
w: Mit|dir ist|Gott das|höch- ste|Gut al-|so dasz|er sein|Fleisch und|Blut, von|dir war-|
 A4 G2- | G2 D2 F2 | D4 G2 | G4 A2 | F4 G2- | G2 D2 D2 | D4 D2 | E4 G2 | B4 G2 | A4 c2 | B4 c2 | %21
w: bar dein|_ Jung- fraw-|schafft in|wel- cher|hafft die|_ Mut- ter-|schafft die|Gött- lich|Krafft hat|dich ge-|macht, ein|
w: haf- tig|_ an sich|nam, und|als ein|Kind zur|_ Mut- ter|kam, bey|dir Lehr,|Trost, sein|Ge- gen-|wart, auff|
 A4 c2 | B4 E2 | A2 B4 | E6 |] %25
w: Mut- ter|Got- tes|hoch- ge-|acht.|
w: dreys- sig|Jahr und|mehr, nicht|spart.|
V:3
 z2 z2 C,2 |"^3)" E,4 G,2 | D,4 G,2 | E,4 D,2 | C,4 E,2 | G,4 C,2 | B,,4 C,2 | C,2 D,4 | F,4 G,2 | %9
w: Ma-|ri- a|sey ge-|be- ne-|deyt, un-|der den|Wei- bern|al- le|Zeit die-|
w: Mit|Wun- der-|wer- cken,|schö- ner|Lehr hat|hat er|dein Hertz|er- fre-|* wet|
 C,4 D,2 | F,4 C,2- | C,2 G,2 F,2 | G,2- G,2 G,2 | C,2- C,2 D,2 | F,4 C,2- | C,2 G,2 F,2 | %16
w: weil frucht-|bar dein|_ Jung- fraw-|schafft _ in|wel- * cher|hafft die|_ Mut- ter-|
w: sehr so|lang er|_ dir O|Jung- fraw zart-|sol- che lieb-|li- che|_ ge- gen-|
 G,4 B,,2 | C,4 C,2 | G,4 C,2 | F,4 C,2 | G,4 C,2 | F,4 C,2 | G,4 A,2 | A,2 G,4 | C,6 |] %25
w: schafft die|Gött- lich|Krafft hat|dich ge-|macht, ein|Mut- ter|Got- tes|hoch- ge-|acht.|
w: wart ent-|zo- gen|nicht, bey|dir ver-|harzt bisz|er letzt-|lich gen|Him- mel|fahrt.|

